libs/ui/packages/crypto-icons/src/svg/XLM.svg

<svg width="24" height="24" viewBox="0 0 24 24" fill="none">
<path d="M17.3475 6.96903L15.5475 7.88703L6.84902 12.3173C6.72508 11.3652 6.86809 10.3975 7.26209 9.52194C7.65609 8.64641 8.28558 7.89757 9.08034 7.35894C9.8751 6.82031 10.8039 6.51307 11.7631 6.47151C12.7223 6.42994 13.6741 6.65568 14.5125 7.12353L15.543 6.59853L15.6968 6.51978C14.7192 5.81035 13.5589 5.39548 12.3531 5.32416C11.1474 5.25283 9.94633 5.52804 8.8919 6.11728C7.83747 6.70652 6.97366 7.58518 6.40249 8.64951C5.83132 9.71384 5.57664 10.9194 5.66852 12.1238C5.68571 12.3503 5.63549 12.5769 5.52419 12.7749C5.41288 12.973 5.24546 13.1337 5.04302 13.2368L4.49927 13.5143V14.8073L6.09977 13.9913L6.61802 13.7265L7.12877 13.4663L16.2983 8.79378L17.3288 8.26953L19.4588 7.18428V5.89203L17.3475 6.96903ZM19.4595 8.47803L7.65077 14.49L6.62027 15.015L4.50002 16.0973V17.3895L6.60602 16.317L8.40677 15.399L17.1143 10.962C17.2401 11.9155 17.0981 12.8853 16.7041 13.7626C16.3101 14.64 15.6797 15.3904 14.8834 15.9299C14.0872 16.4693 13.1565 16.7765 12.1956 16.8171C11.2346 16.8576 10.2814 16.63 9.44252 16.1595L9.37877 16.1933L8.26127 16.7633C9.23904 17.4731 10.3996 17.8882 11.6057 17.9596C12.8118 18.031 14.0132 17.7556 15.0679 17.1661C16.1225 16.5765 16.9864 15.6974 17.5574 14.6326C18.1284 13.5678 18.3827 12.3617 18.2903 11.157C18.2733 10.9307 18.3235 10.7044 18.4346 10.5065C18.5458 10.3087 18.7129 10.148 18.915 10.0448L19.4595 9.76728V8.47878V8.47803Z" fill="white"/>
<path d="M17.3681 7.32713L15.5681 8.24513L6.86965 12.6754C6.74571 11.7233 6.88872 10.7556 7.28272 9.88003C7.67672 9.00451 8.30621 8.25566 9.10097 7.71703C9.89573 7.1784 10.8245 6.87117 11.7837 6.8296C12.7429 6.78803 13.6948 7.01377 14.5331 7.48163L15.5636 6.95663L15.7174 6.87788C14.7398 6.16844 13.5796 5.75357 12.3738 5.68225C11.168 5.61093 9.96696 5.88613 8.91253 6.47537C7.8581 7.06461 6.99429 7.94327 6.42312 9.0076C5.85195 10.0719 5.59727 11.2775 5.68915 12.4819C5.70634 12.7084 5.65612 12.935 5.54482 13.133C5.43351 13.3311 5.26609 13.4918 5.06365 13.5949L4.5199 13.8724V15.1654L6.1204 14.3494L6.63865 14.0846L7.1494 13.8244L16.3189 9.15188L17.3494 8.62763L19.4794 7.54238V6.25013L17.3681 7.32713ZM19.4801 8.83613L7.6714 14.8481L6.6409 15.3731L4.52065 16.4554V17.7476L6.62665 16.6751L8.4274 15.7571L17.1349 11.3201C17.2607 12.2736 17.1187 13.2434 16.7247 14.1207C16.3307 14.9981 15.7003 15.7485 14.9041 16.288C14.1078 16.8274 13.1771 17.1346 12.2162 17.1752C11.2553 17.2157 10.302 16.9881 9.46315 16.5176L9.3994 16.5514L8.2819 17.1214C9.25967 17.8312 10.4202 18.2463 11.6263 18.3177C12.8325 18.3891 14.0339 18.1137 15.0885 17.5242C16.1432 16.9346 17.007 16.0555 17.5781 14.9907C18.1491 13.9259 18.4034 12.7198 18.3109 11.5151C18.2939 11.2888 18.3441 11.0625 18.4553 10.8646C18.5664 10.6668 18.7335 10.5061 18.9356 10.4029L19.4801 10.1254V8.83688V8.83613Z" fill="black"/>
</svg>

<svg width="24" height="24" viewBox="0 0 24 24" fill="none"><path fill="#fff" d="m17.348 6.969-1.8.918-8.699 4.43a5.182 5.182 0 0 1 7.663-5.193l1.031-.525.154-.08a6.33 6.33 0 0 0-10.028 5.605 1.15 1.15 0 0 1-.626 1.113l-.544.277v1.293l1.6-.816.519-.264.51-.26 9.17-4.673 1.03-.524 2.13-1.086V5.892zm2.111 1.509L7.651 14.49l-1.03.525L4.5 16.097v1.293l2.106-1.073 1.8-.918 8.708-4.437a5.182 5.182 0 0 1-7.671 5.198l-.064.033-1.118.57a6.33 6.33 0 0 0 10.03-5.606 1.15 1.15 0 0 1 .624-1.112l.544-.278z"/><path fill="#000" d="m17.368 7.327-1.8.918-8.698 4.43a5.182 5.182 0 0 1 7.663-5.193l1.03-.525.154-.08A6.33 6.33 0 0 0 5.69 12.483a1.15 1.15 0 0 1-.625 1.113l-.544.277v1.293l1.6-.816.519-.264.51-.26 9.17-4.673 1.03-.524 2.13-1.086V6.25zm2.112 1.51-11.809 6.01-1.03.525-2.12 1.082v1.293l2.106-1.073 1.8-.918 8.708-4.437a5.182 5.182 0 0 1-7.672 5.198l-.064.033-1.117.57a6.33 6.33 0 0 0 10.029-5.606 1.15 1.15 0 0 1 .625-1.112l.544-.278z"/></svg>
